pokemon/types-chart/assets/images/defense.svg

<svg fill="none" height="256" viewBox="0 0 256 256" width="256" xmlns="http://www.w3.org/2000/svg"><path d="m128 32-4.56 2.16-84 35.28-7.44 3.12v7.44c0 39.84 16.08 74.88 35.28 100.56 9.6 12.72 19.92 23.28 30 30.72s19.92 12.72 30.72 12.72c11.04 0 20.64-5.28 30.72-12.72s20.4-18 30-30.72c19.2-25.68 35.28-60.72 35.28-100.56v-7.44l-7.44-3.12-84-35.28zm0 26.16v141.84c-.96 0-7.92-1.68-15.84-7.44s-17.04-15.12-25.44-26.16c-15.36-20.4-27.36-48.72-29.28-78.72l70.56-29.28z" fill="#fff"/></svg>

<svg width="256" height="256" viewBox="0 0 256 256" fill="none" xmlns="http://www.w3.org/2000/svg">
<path d="M128 32L123.44 34.16L39.44 69.44L32 72.56V80C32 119.84 48.08 154.88 67.28 180.56C76.88 193.28 87.2 203.84 97.28 211.28C107.36 218.72 117.2 224 128 224C139.04 224 148.64 218.72 158.72 211.28C168.8 203.84 179.12 193.28 188.72 180.56C207.92 154.88 224 119.84 224 80V72.56L216.56 69.44L132.56 34.16L128 32V32ZM128 58.16V200C127.04 200 120.08 198.32 112.16 192.56C104.24 186.8 95.12 177.44 86.72 166.4C71.36 146 59.36 117.68 57.44 87.68L128 58.4V58.16Z" fill="white"/>
</svg>
